X: 1
T: Road To The North, The
M: 4/4
L: 1/8
R: reel
K: Dmaj
ag|f2 d2 cdec|d6 AB|=c4 cBcd|B2 G2 A2 ag|
f2 d2 cdec|d2 A2 FGAF|Dagf e2 dc|d6 ag|
f2 d2 cdec|d6 AB|=c4 cBcd|B2 G2 A2 FG|
A2 d2 =cAGF|G6 FG|Aagf e2 dc|d6 ||
|:FG|A2 d2 d2 cd|e6 d2|AB=cd B2 G2|A6 FG|
A2 d2 d2 cd|e2 dc d2 AB|=c2 g2 fed^c|d6 :|
